public/images/hashed/7c3898b57fb7b6ae3b2d00562dba51f0.svg

<?xml version="1.0" encoding="UTF-8"?>
<svg width="80px" height="80px" viewBox="0 0 80 80" version="1.1" xmlns="http://www.w3.org/2000/svg" xmlns:xlink="http://www.w3.org/1999/xlink">
    <!-- Generator: Sketch 64 (93537) - https://sketch.com -->
    <title>Icon-Architecture/64/Arch_Amazon-CodeGuru_64</title>
    <desc>Created with Sketch.</desc>
    <defs>
        <linearGradient x1="0%" y1="100%" x2="100%" y2="0%" id="linearGradient-1">
            <stop stop-color="#055F4E" offset="0%"></stop>
            <stop stop-color="#56C0A7" offset="100%"></stop>
        </linearGradient>
    </defs>
    <g id="Icon-Architecture/64/Arch_Amazon-CodeGuru_64" stroke="none" stroke-width="1" fill="none" fill-rule="evenodd">
        <g id="Icon-Architecture-BG/64/Machine-Learning" fill="url(#linearGradient-1)">
            <rect id="Rectangle" x="0" y="0" width="80" height="80"></rect>
        </g>
        <path d="M26.6372327,21.525 L22.799156,17.688 L21.3851277,19.102 L25.2232045,22.939 L26.6372327,21.525 Z M58.6148723,19.102 L57.199844,17.688 L53.3627673,21.525 L54.7767955,22.939 L58.6148723,19.102 Z M42.2695454,27.49 L40.2885058,27.207 L37.7304546,45.114 L39.7104942,45.397 L42.2695454,27.49 Z M49.7526951,36.902 C50.0197004,36.546 50.0197004,36.057 49.7526951,35.702 L45.9156183,30.586 L44.3165863,31.786 L47.7026541,36.302 L44.3165863,40.818 L45.9156183,42.018 L49.7526951,36.902 Z M35.6834137,40.818 L32.2963459,36.302 L35.6834137,31.786 L34.0833817,30.586 L30.2463049,35.702 C29.9802996,36.057 29.9802996,36.546 30.2463049,36.902 L34.0833817,42.018 L35.6834137,40.818 Z M33.9273785,63 L46.0726215,63 L43.9575792,66 L36.0414208,66 L33.9273785,63 Z M45.2936059,67.576 L48.8176764,62.576 C49.0326807,62.271 49.0596812,61.871 48.8876778,61.539 C48.7156743,61.208 48.3726675,61 47.99966,61 L31.99934,61 C31.6263325,61 31.2833257,61.208 31.1123222,61.539 C30.9403188,61.871 30.9673193,62.271 31.1823236,62.576 L34.7053941,67.576 C34.8933979,67.841 35.198404,68 35.5234105,68 L44.4765895,68 C44.801596,68 45.1066021,67.841 45.2936059,67.576 L45.2936059,67.576 Z M32.0463409,48.752 C32.0463409,48.43 31.8923378,48.128 31.6313326,47.94 C28.0902618,45.389 25.9762195,40.917 25.9762195,35.976 C25.9762195,28.113 32.1363427,21.953 39.9995,21.953 C47.8636573,21.953 54.0237805,28.113 54.0237805,35.976 C54.0237805,40.917 51.9087382,45.389 48.3676674,47.94 C48.1076622,48.128 47.9526591,48.43 47.9526591,48.752 L47.9526591,55.767 L32.0463409,55.767 L32.0463409,48.752 Z M49.9526991,56.767 L49.9526991,49.252 C53.7637753,46.285 56.0238205,41.364 56.0238205,35.976 C56.0238205,26.991 48.9856797,19.953 39.9995,19.953 C31.0143203,19.953 23.9761795,26.991 23.9761795,35.976 C23.9761795,41.364 26.2362247,46.285 30.0463009,49.252 L30.0463009,56.767 C30.0463009,57.319 30.4933099,57.767 31.0463209,57.767 L48.9526791,57.767 C49.5056901,57.767 49.9526991,57.319 49.9526991,56.767 L49.9526991,56.767 Z M59.1868837,37 L65,37 L65,35 L59.1868837,35 L59.1868837,37 Z M15,37 L20.8131163,37 L20.8131163,35 L15,35 L15,37 Z M38.99948,18 L40.99952,18 L40.99952,12 L38.99948,12 L38.99948,18 Z" id="Amazon-CodeGuru_Icon_64_Squid" fill="#FFFFFF"></path>
    </g>
</svg>

<svg xmlns="http://www.w3.org/2000/svg" width="80" height="80"><defs><linearGradient id="a" x1="0%" x2="100%" y1="100%" y2="0%"><stop offset="0%" stop-color="#055F4E"/><stop offset="100%" stop-color="#56C0A7"/></linearGradient></defs><g fill="none" fill-rule="evenodd"><path fill="url(#a)" d="M0 0h80v80H0z"/><path fill="#FFF" d="M26.637 21.525 22.8 17.688l-1.414 1.414 3.838 3.837 1.414-1.414Zm31.978-2.423L57.2 17.688l-3.837 3.837 1.414 1.414 3.838-3.837ZM42.27 27.49l-1.981-.283-2.559 17.907 1.98.283 2.56-17.907Zm7.483 9.412a.999.999 0 0 0 0-1.2l-3.837-5.116-1.6 1.2 3.387 4.516-3.386 4.516 1.599 1.2 3.837-5.116Zm-14.07 3.916-3.387-4.516 3.387-4.516-1.6-1.2-3.837 5.116a1.002 1.002 0 0 0 0 1.2l3.837 5.116 1.6-1.2ZM33.927 63h12.146l-2.115 3H36.04l-2.114-3Zm11.367 4.576 3.524-5A1 1 0 0 0 48 61H32a.999.999 0 0 0-.818 1.576l3.523 5c.188.265.493.424.818.424h8.954c.325 0 .63-.159.817-.424ZM32.046 48.752a1 1 0 0 0-.415-.812c-3.54-2.551-5.655-7.023-5.655-11.964 0-7.863 6.16-14.023 14.023-14.023 7.865 0 14.025 6.16 14.025 14.023 0 4.941-2.115 9.413-5.656 11.964-.26.188-.415.49-.415.812v7.015H32.046v-7.015Zm17.907 8.015v-7.515c3.81-2.967 6.07-7.888 6.07-13.276 0-8.985-7.037-16.023-16.024-16.023-8.985 0-16.023 7.038-16.023 16.023 0 5.388 2.26 10.309 6.07 13.276v7.515a1 1 0 0 0 1 1h17.907a1 1 0 0 0 1-1ZM59.187 37H65v-2h-5.813v2ZM15 37h5.813v-2H15v2Zm24-19h2v-6h-2v6Z"/></g></svg>
